images/app-maintenance.svg

<svg viewBox="0 0 100 100" fill="none" xmlns="http://www.w3.org/2000/svg">
<path d="M1.95312 12.9038H98.0469V25.7944H1.95312V12.9038Z" fill="#E6E8EC"/>
<path d="M33.1505 58.4532L33.1696 58.4746C28.4981 62.9218 25.5859 69.2007 25.5859 76.1603H11.3281C11.3281 65.2617 15.8356 55.416 23.0896 48.3862L23.2071 48.5098L33.1505 58.4532Z" fill="#00C2CB"/>
<path d="M77.24 48.7093L77.1172 48.8344L67.1722 58.7778L67.1585 58.7931C62.7502 54.4359 56.6895 51.7466 50 51.7466C43.4746 51.7466 37.5488 54.3047 33.1696 58.4749L33.1505 58.4536L23.2071 48.5102L23.0896 48.3866C30.0507 41.6407 39.5393 37.4888 50 37.4888C60.627 37.4888 70.2522 41.7734 77.24 48.7093Z" fill="#FFBD59"/>
<path d="M67.1722 58.7775L77.1172 48.8341L77.24 48.709C84.301 55.7166 88.6719 65.4273 88.6719 76.1603H74.4141C74.4141 69.3648 71.6385 63.2186 67.1585 58.7928L67.1722 58.7775Z" fill="#F55F44"/>
<path d="M99.9977 12.7914C99.9451 11.7577 99.0921 10.9375 98.0469 10.9375H1.95312C0.907898 10.9375 0.0549316 11.7577 0.00228883 12.7914C0 12.825 0 12.8578 0 12.8914V87.1086C0 88.1874 0.875092 89.0625 1.95312 89.0625H98.0469C99.1249 89.0625 100 88.1874 100 87.1086V12.8914C100 12.8578 100 12.825 99.9977 12.7914ZM3.90625 14.8216H96.0938V23.8319H3.90625V14.8216ZM96.0938 85.1547H3.90625V27.7397H96.0938V85.1547Z" fill="#052B5D"/>
<path d="M33.3984 21.4148H17.7734C16.6946 21.4148 15.8203 20.5405 15.8203 19.4617C15.8203 18.3821 16.6946 17.5078 17.7734 17.5078H33.3984C34.4772 17.5078 35.3516 18.3821 35.3516 19.4617C35.3516 20.5405 34.4772 21.4148 33.3984 21.4148Z" fill="#052B5D"/>
<path d="M9.96475 21.4148C8.88596 21.4148 8.01086 20.5405 8.01086 19.4617C8.01086 18.3821 8.88443 17.5078 9.96323 17.5078H9.96475C11.0435 17.5078 11.9179 18.3821 11.9179 19.4617C11.9179 20.5405 11.0435 21.4148 9.96475 21.4148Z" fill="#052B5D"/>
<path d="M78.6858 47.3937C78.6621 47.3685 78.6385 47.3449 78.6156 47.3212C70.9572 39.7178 60.7948 35.5308 50 35.5308C39.389 35.5308 29.3495 39.598 21.7308 46.9832C21.7049 47.0069 21.682 47.0321 21.6583 47.0557C13.736 54.769 9.375 65.1038 9.375 76.168C9.375 77.2468 10.2501 78.1219 11.3281 78.1219H25.5859C26.664 78.1219 27.5391 77.2468 27.5391 76.168C27.5391 69.9569 30.0179 64.1761 34.5177 59.8914C38.7093 55.8982 44.207 53.7002 50 53.7002C55.9494 53.7002 61.557 56.0035 65.7852 60.1844C70.0897 64.4401 72.4609 70.1156 72.4609 76.168C72.4609 77.2468 73.336 78.1219 74.4141 78.1219H88.6719C89.7499 78.1219 90.625 77.2468 90.625 76.168C90.625 65.2877 86.3846 55.0735 78.6858 47.3937ZM23.703 74.2141H13.3324C13.7794 65.5654 17.1974 57.5019 23.0995 51.1642L30.426 58.493C26.4671 62.8631 24.1272 68.3318 23.703 74.2141ZM50 49.7932C43.84 49.7932 37.9631 51.9103 33.252 55.7944L25.9079 48.4489C32.592 42.6246 41.0721 39.4385 50 39.4385C59.0996 39.4385 67.701 42.7299 74.4354 48.7517L67.0998 56.0897C62.3337 52.0164 56.3324 49.7932 50 49.7932ZM76.297 74.2141C75.8812 68.4974 73.6504 63.1499 69.8769 58.8363L77.211 51.5021C82.9201 57.791 86.2267 65.731 86.6676 74.2141H76.297Z" fill="#052B5D"/>
<path d="M49.8047 78.1218C49.305 78.1218 48.8052 77.931 48.4238 77.5496L37.4863 66.6082C36.7233 65.8453 36.7233 64.6086 37.4863 63.8456C38.2492 63.0827 39.4852 63.0827 40.2481 63.8456L51.1856 74.7862C51.9485 75.5491 51.9485 76.7859 51.1856 77.5496C50.8041 77.931 50.3044 78.1218 49.8047 78.1218Z" fill="#E6E8EC"/>
</svg>

<svg xmlns="http://www.w3.org/2000/svg" viewBox="0 0 100 100" fill="none"  xmlns:v="https://vecta.io/nano"><path d="M1.953 12.904h96.094v12.89H1.953v-12.89z" fill="#e6e8ec"/><path d="M33.15 58.453l.02.02c-4.672 4.447-7.584 10.726-7.584 17.686H11.328c0-10.9 4.508-20.744 11.762-27.774l.117.124 9.943 9.943z" fill="#00c2cb"/><path d="M77.24 48.71l-.123.125-9.96 9.96A24.33 24.33 0 0 0 50 51.747c-6.525 0-12.45 2.558-16.83 6.728l-.02-.02L23.1 48.387A38.54 38.54 0 0 1 50 37.489c10.627 0 20.252 4.285 27.24 11.22z" fill="#ffbd59"/><path d="M67.172 58.778L77.24 48.71c7.06 7.008 11.432 16.718 11.432 27.45H74.414c0-6.796-2.776-12.942-7.256-17.368l.014-.015z" fill="#f55f44"/><path d="M99.998 12.8c-.053-1.034-.906-1.854-1.95-1.854H1.953c-1.045 0-1.898.82-1.95 1.854l-.002.1V87.1c0 1.08.875 1.954 1.953 1.954h96.094c1.078 0 1.953-.875 1.953-1.954V12.793zm-96.1 2.03h92.188v9h-92.2v-9zm92.188 70.333h-92.2V27.74h92.188v57.415zM33.398 21.415H17.773a1.95 1.95 0 0 1-1.953-1.953c0-1.08.874-1.954 1.953-1.954h15.625c1.08 0 1.953.874 1.953 1.954a1.95 1.95 0 0 1-1.953 1.953zm-23.433 0c-1.08 0-1.954-.874-1.954-1.953s.874-1.954 1.952-1.954h.002c1.08 0 1.953.874 1.953 1.954a1.95 1.95 0 0 1-1.953 1.953zm68.72 25.98l-.07-.073A40.36 40.36 0 0 0 50 35.531a40.41 40.41 0 0 0-28.269 11.452l-.072.073C13.736 54.77 9.375 65.104 9.375 76.168c0 1.08.875 1.954 1.953 1.954h14.258c1.078 0 1.953-.875 1.953-1.954 0-6.2 2.48-11.992 6.98-16.277C38.7 55.898 44.207 53.7 50 53.7c5.95 0 11.557 2.303 15.785 6.484 4.304 4.256 6.676 9.93 6.676 15.984 0 1.08.875 1.954 1.953 1.954h14.258c1.078 0 1.953-.875 1.953-1.954a40.36 40.36 0 0 0-11.939-28.774zm-54.983 26.82h-10.37a36.37 36.37 0 0 1 9.767-23.05l7.326 7.33c-3.96 4.37-6.3 9.84-6.723 15.72zM50 49.793c-6.16 0-12.037 2.117-16.748 6l-7.344-7.346c6.684-5.824 15.164-9 24.092-9 9.1 0 17.7 3.3 24.435 9.313L67.1 56.1c-4.766-4.073-10.767-6.297-17.1-6.297zm26.297 24.42c-.416-5.717-2.647-11.064-6.42-15.378L77.21 51.5a36.42 36.42 0 0 1 9.457 22.712h-10.37z" fill="#052b5d"/><path d="M49.805 78.122c-.5 0-1-.19-1.38-.572l-10.937-10.94c-.763-.763-.763-2 0-2.763s2-.763 2.762 0l10.938 10.94c.763.763.763 2 0 2.763-.382.38-.88.572-1.38.572z" fill="#e6e8ec"/></svg>
